!!! OTL: Literature98
!!! Chapter: 5
!!! Section: III
!!! Page: 367
!!! Mode: 
!!! Encoder: DJB
**kern
*staff1
*I"Piano
=1-
*clefG2
*k[b-e-a-d-g-c-]
*D-:
*M3/4
[4dd-\
8dd-\L]
16b-\L
16g-\JJ
8e-/L
16g-/L
16b-/JJ
=2
8dd-\L
16b-\L
16g-\JJ
8e-/L
16g-/L
16b-/JJ
8g-/L
16g-/L
16e-/JJ
=3
8g-/L
16f/L
16e-/JJ
[2d-/
=4
2d-/]
8e-/L
8g-/J
=5
4.a-/
8dd-\
8b-/L
16g-/L
16b-/JJ
=6
8a-\L
8dd-\J
4b-\
[4ee-\
=7
4ee-\]
4.b-\
8cc-\
=8
!!linebreak:original
[4dd-\
8dd-\L]
16b-\L
16g-\JJ
8e-/L
16g-/L
16b-/JJ
=9
8dd-\L
16b-\L
16g-\JJ
8e-/L
16g-/L
16b-/JJ
8g-/L
16g-/L
16e-/JJ
=10
8g-/L
16f/L
16e-/JJ
[4d-/
16d-/LL]
16c-/
16B-/
16A-/JJ
=11
2G-/
4r
==
*-
